svgs/devcheck.svg

<svg xmlns="http://www.w3.org/2000/svg" viewBox="0 0 192 192"><path fill="none" stroke="#000" stroke-linecap="round" stroke-linejoin="round" stroke-width="8" d="M69.693 91.289c8.55-4.856 19.634-9.952 25.883-9.952 6.064 0-15.733 62.315-11.466 62.315a43.463 43.463 0 0 0 25.421-9.884m-10.575-85.42a10.581 10.581 0 0 0-7.478 3.097 10.579 10.579 0 0 0 0 14.955 10.579 10.579 0 0 0 14.955 0 10.579 10.579 0 0 0 0-14.955 10.579 10.579 0 0 0-7.477-3.097Z"/><path fill="none" stroke="#000" stroke-linecap="round" stroke-linejoin="round" stroke-width="8" d="M96 16.5a79.529 79.529 0 0 0-56.215 23.285A79.529 79.529 0 0 0 16.5 96a79.529 79.529 0 0 0 23.285 56.215A79.529 79.529 0 0 0 96 175.5a79.529 79.529 0 0 0 56.215-23.285A79.529 79.529 0 0 0 175.5 96a79.529 79.529 0 0 0-23.285-56.215A79.529 79.529 0 0 0 96 16.5Z"/></svg>

<svg
    xmlns="http://www.w3.org/2000/svg"
    viewBox="0 0 192 192"
    id="vector">
    <path
        id="path"
        d="M 69.693 91.289 C 78.243 86.433 89.327 81.337 95.576 81.337 C 101.64 81.337 79.843 143.652 84.11 143.652 C 93.424 143.171 102.339 139.704 109.531 133.768 M 98.956 48.348 C 96.152 48.348 93.461 49.463 91.478 51.445 C 89.496 53.428 88.381 56.119 88.381 58.923 C 88.381 61.726 89.496 64.418 91.478 66.4 C 93.461 68.382 96.152 69.497 98.956 69.497 C 101.759 69.497 104.451 68.382 106.433 66.4 C 108.415 64.418 109.53 61.726 109.53 58.923 C 109.53 56.119 108.415 53.428 106.433 51.445 C 104.451 49.463 101.759 48.348 98.956 48.348 Z"
        fill="none"
        stroke="#000000"
        stroke-width="8"
        stroke-linecap="round"
        stroke-linejoin="round"/>
    <path
        id="path_1"
        d="M 96 16.5 C 74.923 16.5 54.688 24.882 39.785 39.785 C 24.882 54.688 16.5 74.923 16.5 96 C 16.5 117.077 24.882 137.312 39.785 152.215 C 54.688 167.118 74.923 175.5 96 175.5 C 117.077 175.5 137.312 167.118 152.215 152.215 C 167.118 137.312 175.5 117.077 175.5 96 C 175.5 74.923 167.118 54.688 152.215 39.785 C 137.312 24.882 117.077 16.5 96 16.5 Z"
        fill="none"
        stroke="#000000"
        stroke-width="8"
        stroke-linecap="round"
        stroke-linejoin="round"/>
</svg>
